X:168
T:Salmon River Reel
R:reel
C:Bruce Osborne  --  May. 1991
Z:abc by bosborne@kos.net
M:2/4
L:1/8
K:A
c/B/|A/B/A/F/ E/F/E/C/|D/E/F/A/ EE/D/|C/E/A/c/ e/c/A/c/|e/c/A/c/ Bc/B/|\
A/B/A/F/ E/F/E/C/|D/E/F/A/ EE/D/|C/E/A/c/ e/c/A/c/|B/A/G/B/ A:|
|:c/d/|e/c/a/c/ e/c/a/c/|B/A/G/B/ AE/D/|C/E/A/c/ e/c/A/c/|e/c/A/c/ Bc/d/|\
e/c/a/c/ e/c/a/c/|B/A/G/B/ AE/D/|C/E/A/c/ e/c/A/c/|B/A/G/B/ A:|
